configs/network-logos/etherlink-dark.svg

<svg width="103" height="25" viewBox="0 0 103 25" fill="none" xmlns="http://www.w3.org/2000/svg">
<g clip-path="url(#clip0_11220_6272)">
<path d="M12.05 0.439941C5.42241 0.439941 0.0500488 5.81294 0.0500488 12.4399C0.0500488 19.0669 5.42305 24.4399 12.05 24.4399C18.677 24.4399 24.05 19.0669 24.05 12.4399C24.05 5.81294 18.677 0.439941 12.05 0.439941ZM12.05 22.3158C6.59579 22.3158 2.17417 17.8942 2.17417 12.4399C2.17417 6.98569 6.59579 2.56406 12.05 2.56406C17.5043 2.56406 21.9259 6.98569 21.9259 12.4399C21.9259 17.8942 17.5043 22.3158 12.05 22.3158Z" fill="url(#paint0_linear_11220_6272)"/>
<path d="M11.9842 5.84106C8.35334 5.87689 5.41028 8.88521 5.45123 12.516C5.46146 13.4444 5.66364 14.3267 6.02065 15.1258C6.07375 15.2454 6.23242 15.2723 6.32327 15.1782L7.77816 13.6766C7.87285 13.5788 7.91188 13.4406 7.88437 13.3068C7.82679 13.0272 7.79672 12.7381 7.79672 12.4412C7.79672 10.0912 9.70139 8.18655 12.0507 8.18655C12.2913 8.18655 12.5267 8.20639 12.7558 8.24478C12.9093 8.27037 13.0661 8.22174 13.1742 8.10978L14.6214 6.61714C14.7059 6.52948 14.6764 6.38361 14.5638 6.33755C13.7698 6.01061 12.8984 5.83339 11.9842 5.84235V5.84106Z" fill="url(#paint1_linear_11220_6272)"/>
<path d="M12.1153 19.0471C15.7462 19.0113 18.6892 16.003 18.6483 12.3722C18.6381 11.4438 18.4359 10.5615 18.0789 9.76243C18.0258 9.64278 17.8671 9.61591 17.7763 9.70996L16.3214 11.2116C16.2267 11.3095 16.1876 11.4476 16.2152 11.5814C16.2727 11.861 16.3028 12.1501 16.3028 12.447C16.3028 14.797 14.3981 16.7016 12.0488 16.7016C11.8082 16.7016 11.5728 16.6818 11.3438 16.6434C11.1902 16.6178 11.0335 16.6665 10.9253 16.7784L9.47811 18.2711C9.39366 18.3587 9.42309 18.5046 9.53569 18.5507C10.3297 18.8776 11.2011 19.0548 12.1153 19.0459V19.0471Z" fill="url(#paint2_linear_11220_6272)"/>
<path d="M8.6505 13.7444L5.87908 16.5158C5.31665 17.0782 5.31665 17.9901 5.87908 18.5525C6.4415 19.115 7.35337 19.115 7.9158 18.5525L10.6872 15.7811C11.2496 15.2187 11.2496 14.3068 10.6872 13.7444C10.1248 13.182 9.21293 13.182 8.6505 13.7444Z" fill="url(#paint3_linear_11220_6272)"/>
<path d="M16.1241 6.28822L13.3527 9.05964C12.7903 9.62207 12.7903 10.5339 13.3527 11.0964C13.9151 11.6588 14.827 11.6588 15.3894 11.0964L18.1609 8.32494C18.7233 7.76251 18.7233 6.85064 18.1609 6.28822C17.5984 5.72579 16.6866 5.72579 16.1241 6.28822Z" fill="url(#paint4_linear_11220_6272)"/>
<path d="M31.7109 18.7041V6.40601H39.7097V8.27357H33.9387V11.612H39.2951V13.4796H33.9387V16.8366H39.7576V18.7041H31.7109Z" fill="white"/>
<path d="M46.4946 9.48027V11.1617H41.192V9.48027H46.4946ZM42.5017 7.27042H44.6757V15.9294C44.6757 16.2218 44.7205 16.4451 44.8107 16.5993C44.9009 16.7535 45.0199 16.8584 45.1677 16.9147C45.3155 16.971 45.4799 16.9985 45.6603 16.9985C45.7966 16.9985 45.9214 16.9883 46.0359 16.9684C46.1498 16.9486 46.2368 16.9307 46.2969 16.9147L46.6635 18.614C46.5471 18.6543 46.382 18.6978 46.1683 18.7458C45.954 18.7938 45.693 18.8219 45.3846 18.8296C44.8401 18.8456 44.3494 18.7624 43.9131 18.5801C43.4767 18.3977 43.1312 18.1149 42.8772 17.7304C42.6232 17.3459 42.4978 16.8654 42.5017 16.289V7.26978V7.27042Z" fill="white"/>
<path d="M50.4876 13.2992V18.7035H48.3136V6.4054H50.4396V11.0471H50.5478C50.764 10.527 51.0993 10.1156 51.5535 9.81295C52.0078 9.51096 52.5874 9.35933 53.2918 9.35933C53.9323 9.35933 54.4908 9.49369 54.9675 9.76176C55.4441 10.0298 55.8133 10.422 56.0756 10.939C56.3379 11.4553 56.4691 12.0861 56.4691 12.8309V18.7035H54.295V13.1668C54.295 12.5462 54.1357 12.0631 53.8178 11.7163C53.4998 11.3702 53.0538 11.1968 52.4819 11.1968C52.0973 11.1968 51.7544 11.28 51.4518 11.4463C51.1492 11.6127 50.9131 11.852 50.7429 12.1642C50.5727 12.4764 50.4876 12.8545 50.4876 13.2992Z" fill="white"/>
<path d="M62.7621 18.884C61.8376 18.884 61.0397 18.6908 60.3692 18.3043C59.6987 17.9179 59.1831 17.3696 58.8229 16.6588C58.4627 15.948 58.2822 15.1105 58.2822 14.1457C58.2822 13.1808 58.4633 12.3632 58.8254 11.6447C59.1875 10.9262 59.6949 10.3657 60.3475 9.96331C61.0001 9.56088 61.7666 9.35999 62.6475 9.35999C63.2157 9.35999 63.7531 9.45084 64.2598 9.63318C64.7659 9.81552 65.2144 10.0964 65.6047 10.4771C65.995 10.8577 66.3021 11.3408 66.5266 11.9275C66.7506 12.5142 66.8632 13.2116 66.8632 14.0203V14.6869H59.3027V13.2218H64.7794C64.7755 12.8053 64.6853 12.4342 64.5094 12.1079C64.3334 11.7816 64.0877 11.5244 63.7736 11.3363C63.4595 11.1482 63.0941 11.0542 62.6776 11.0542C62.233 11.0542 61.8427 11.161 61.5068 11.3753C61.1703 11.5897 60.9092 11.8699 60.723 12.216C60.5369 12.5622 60.4415 12.9416 60.4377 13.3542V14.6332C60.4377 15.17 60.5356 15.6293 60.732 16.0113C60.9284 16.3939 61.2023 16.6856 61.5548 16.8878C61.9073 17.09 62.3193 17.1911 62.7915 17.1911C63.1076 17.1911 63.3942 17.1463 63.6501 17.0561C63.906 16.9659 64.1287 16.8328 64.3168 16.6568C64.5049 16.4809 64.6469 16.2627 64.7429 16.0023L66.7723 16.2307C66.6444 16.7675 66.4012 17.2346 66.0429 17.6332C65.6847 18.0318 65.2272 18.3395 64.6706 18.5577C64.114 18.7759 63.4774 18.8853 62.7608 18.8853L62.7621 18.884Z" fill="white"/>
<path d="M68.7007 18.7042V9.48031H70.8082V11.0177H70.9041C71.0724 10.4854 71.3616 10.074 71.7717 9.78357C72.1818 9.49311 72.6514 9.34851 73.1799 9.34851C73.3002 9.34851 73.4352 9.35363 73.5855 9.36323C73.7359 9.37346 73.8606 9.38818 73.9611 9.40801V11.4074C73.8689 11.3754 73.7237 11.3466 73.526 11.3204C73.3277 11.2941 73.1364 11.2813 72.9528 11.2813C72.5567 11.2813 72.201 11.3664 71.8869 11.5366C71.5727 11.7068 71.3251 11.9422 71.1453 12.2423C70.9649 12.5424 70.8753 12.8891 70.8753 13.2813V18.7036H68.7013L68.7007 18.7042Z" fill="white"/>
<path d="M77.5817 6.4054V18.7035H75.4077V6.4054H77.5817Z" fill="white"/>
<path d="M80.9086 8.17124C80.5644 8.17124 80.2682 8.05544 80.0199 7.82319C79.7717 7.59094 79.6476 7.31263 79.6476 6.98826C79.6476 6.66388 79.7717 6.38685 80.0199 6.15652C80.2682 5.9262 80.5644 5.81104 80.9086 5.81104C81.2528 5.81104 81.5542 5.92748 81.8005 6.15908C82.0468 6.39133 82.1697 6.66964 82.1697 6.99402C82.1697 7.31839 82.0468 7.59542 81.8005 7.82575C81.5542 8.05608 81.2573 8.17124 80.9086 8.17124ZM79.8158 18.7042V9.48026H81.9899V18.7042H79.8158Z" fill="white"/>
<path d="M86.3974 13.2992V18.7036H84.2234V9.47963H86.3008V11.0471H86.4089C86.6213 10.5308 86.9604 10.1207 87.4268 9.81616C87.8933 9.51226 88.471 9.35999 89.1594 9.35999C89.796 9.35999 90.3513 9.49626 90.8261 9.76818C91.3002 10.0407 91.6687 10.4348 91.931 10.9512C92.1933 11.4675 92.3226 12.0945 92.3181 12.8309V18.7036H90.144V13.1668C90.144 12.55 89.9847 12.0676 89.6668 11.7196C89.3488 11.3715 88.9092 11.1968 88.3488 11.1968C87.9681 11.1968 87.6309 11.28 87.3366 11.4464C87.0423 11.6127 86.812 11.852 86.6463 12.1642C86.4799 12.4764 86.3968 12.8545 86.3968 13.2992H86.3974Z" fill="white"/>
<path d="M94.5337 18.7041V6.40601H96.7077V18.7041H94.5337ZM96.5158 15.8097L96.51 13.1853H96.8581L100.173 9.48022H102.713L98.6354 14.0202H98.185L96.5158 15.8097ZM100.323 18.7041L97.32 14.5065L98.7851 12.9754L102.923 18.7041H100.323Z" fill="white"/>
</g>
<defs>
<linearGradient id="paint0_linear_11220_6272" x1="0.0500488" y1="12.4399" x2="33.5529" y2="12.4399" gradientUnits="userSpaceOnUse">
<stop stop-color="#38FF9C"/>
<stop offset="1" stop-color="#171717"/>
</linearGradient>
<linearGradient id="paint1_linear_11220_6272" x1="5.45059" y1="10.5372" x2="18.0546" y2="10.5372" gradientUnits="userSpaceOnUse">
<stop stop-color="#38FF9C"/>
<stop offset="1" stop-color="#171717"/>
</linearGradient>
<linearGradient id="paint2_linear_11220_6272" x1="9.42949" y1="14.351" x2="21.965" y2="14.351" gradientUnits="userSpaceOnUse">
<stop stop-color="#38FF9C"/>
<stop offset="1" stop-color="#171717"/>
</linearGradient>
<linearGradient id="paint3_linear_11220_6272" x1="5.45713" y1="16.1488" x2="14.9632" y2="16.1488" gradientUnits="userSpaceOnUse">
<stop stop-color="#38FF9C"/>
<stop offset="1" stop-color="#171717"/>
</linearGradient>
<linearGradient id="paint4_linear_11220_6272" x1="12.9305" y1="8.69232" x2="21.7015" y2="8.69232" gradientUnits="userSpaceOnUse">
<stop stop-color="#38FF9C"/>
<stop offset="1" stop-color="#171717"/>
</linearGradient>
<clipPath id="clip0_11220_6272">
<rect width="103" height="25" fill="white"/>
</clipPath>
</defs>
</svg>

<svg xmlns="http://www.w3.org/2000/svg" fill="none" viewBox="0 0 103 25">
  <g clip-path="url(#etherlink-dark_svg__a)">
    <path fill="url(#etherlink-dark_svg__b)" d="M12.05.44c-6.628 0-12 5.373-12 12s5.373 12 12 12 12-5.373 12-12-5.373-12-12-12Zm0 21.876c-5.454 0-9.876-4.422-9.876-9.876s4.422-9.876 9.876-9.876 9.876 4.422 9.876 9.876-4.422 9.876-9.876 9.876Z"/>
    <path fill="url(#etherlink-dark_svg__c)" d="M11.984 5.841c-3.63.036-6.574 3.044-6.533 6.675.01.928.213 1.81.57 2.61.053.12.211.146.302.052l1.455-1.501a.411.411 0 0 0 .106-.37 4.254 4.254 0 0 1 4.871-5.062.472.472 0 0 0 .42-.135l1.446-1.493a.173.173 0 0 0-.057-.28 6.588 6.588 0 0 0-2.58-.495Z"/>
    <path fill="url(#etherlink-dark_svg__d)" d="M12.115 19.047c3.631-.036 6.574-3.044 6.533-6.675a6.559 6.559 0 0 0-.57-2.61.186.186 0 0 0-.302-.052l-1.455 1.502a.411.411 0 0 0-.106.37 4.254 4.254 0 0 1-4.871 5.062.472.472 0 0 0-.419.134l-1.447 1.493a.173.173 0 0 0 .058.28 6.59 6.59 0 0 0 2.58.495v.001Z"/>
    <path fill="url(#etherlink-dark_svg__e)" d="m8.65 13.744-2.77 2.772a1.44 1.44 0 1 0 2.036 2.037l2.771-2.772a1.44 1.44 0 0 0-2.037-2.037Z"/>
    <path fill="url(#etherlink-dark_svg__f)" d="M16.124 6.288 13.353 9.06a1.44 1.44 0 0 0 2.036 2.036l2.772-2.771a1.44 1.44 0 0 0-2.037-2.037Z"/>
    <path fill="#fff" d="M31.71 18.704V6.406h8v1.868h-5.771v3.338h5.356v1.868H33.94v3.357h5.819v1.867H31.71ZM46.495 9.48v1.682h-5.303V9.48h5.303Zm-3.993-2.21h2.174v8.66c0 .292.044.515.135.67.09.153.209.258.357.315.148.056.312.084.492.084.137 0 .261-.01.376-.03.114-.02.2-.038.26-.054l.367 1.699a4.115 4.115 0 0 1-1.279.216 3.512 3.512 0 0 1-1.47-.25 2.251 2.251 0 0 1-1.037-.85c-.254-.384-.38-.865-.375-1.441v-9.02.001Zm7.986 6.03v5.403h-2.174V6.405h2.126v4.642h.108c.216-.52.551-.931 1.005-1.234.455-.302 1.034-.454 1.739-.454.64 0 1.199.135 1.675.403.477.268.846.66 1.109 1.177.262.516.393 1.147.393 1.892v5.872h-2.174v-5.536c0-.62-.16-1.104-.477-1.45-.318-.347-.764-.52-1.336-.52-.385 0-.728.083-1.03.25a1.762 1.762 0 0 0-.71.717c-.17.312-.254.69-.254 1.135Zm12.274 5.584c-.924 0-1.722-.193-2.393-.58a3.875 3.875 0 0 1-1.546-1.645c-.36-.711-.54-1.548-.54-2.513 0-.965.18-1.783.542-2.501a4.09 4.09 0 0 1 1.522-1.682c.653-.402 1.42-.603 2.3-.603.569 0 1.106.09 1.613.273.506.183.954.463 1.345.844.39.38.697.864.922 1.45.224.587.336 1.285.336 2.093v.667h-7.56v-1.465h5.476a2.357 2.357 0 0 0-.27-1.114 1.977 1.977 0 0 0-.735-.772 2.092 2.092 0 0 0-1.096-.282 2.13 2.13 0 0 0-1.171.321 2.242 2.242 0 0 0-.784.841 2.414 2.414 0 0 0-.285 1.138v1.28c0 .536.098.995.294 1.377.196.383.47.675.823.877.352.202.764.303 1.236.303.317 0 .603-.045.86-.135.255-.09.478-.223.666-.4a1.66 1.66 0 0 0 .426-.654l2.03.229a3.156 3.156 0 0 1-.73 1.402 3.55 3.55 0 0 1-1.372.925c-.557.218-1.194.327-1.91.327l.001-.001Zm5.938-.18V9.48h2.108v1.538h.096c.168-.533.458-.944.868-1.234.41-.29.88-.435 1.408-.435.12 0 .255.005.405.014.15.01.276.025.376.045v2a2.42 2.42 0 0 0-.435-.088 4.362 4.362 0 0 0-.573-.039c-.396 0-.752.085-1.066.256-.314.17-.562.405-.742.705-.18.3-.27.647-.27 1.04v5.422h-2.174Zm8.882-12.299v12.298h-2.174V6.405h2.174Zm3.327 1.766c-.345 0-.64-.116-.89-.348a1.104 1.104 0 0 1-.371-.835c0-.324.124-.601.372-.831.248-.23.544-.346.889-.346.344 0 .645.116.891.348.247.232.37.51.37.835 0 .324-.123.601-.37.832-.246.23-.543.345-.891.345Zm-1.093 10.533V9.48h2.174v9.224h-2.174Zm6.581-5.404v5.404h-2.174V9.48h2.078v1.567h.108a2.634 2.634 0 0 1 1.018-1.23c.466-.305 1.044-.457 1.732-.457.637 0 1.192.136 1.667.408.474.273.843.667 1.105 1.183s.392 1.143.387 1.88v5.873h-2.174v-5.537c0-.617-.16-1.1-.477-1.447-.318-.349-.758-.523-1.318-.523-.38 0-.718.083-1.012.25a1.742 1.742 0 0 0-.69.717c-.167.312-.25.69-.25 1.135Zm8.137 5.404V6.406h2.174v12.298h-2.174Zm1.982-2.894-.006-2.625h.348l3.315-3.705h2.54l-4.078 4.54h-.45l-1.67 1.79Zm3.807 2.894-3.003-4.197 1.465-1.532 4.138 5.73h-2.6Z"/>
  </g>
  <defs>
    <linearGradient id="etherlink-dark_svg__b" x1=".05" x2="33.553" y1="12.44" y2="12.44" gradientUnits="userSpaceOnUse">
      <stop stop-color="#38FF9C"/>
      <stop offset="1" stop-color="#171717"/>
    </linearGradient>
    <linearGradient id="etherlink-dark_svg__c" x1="5.451" x2="18.055" y1="10.537" y2="10.537" gradientUnits="userSpaceOnUse">
      <stop stop-color="#38FF9C"/>
      <stop offset="1" stop-color="#171717"/>
    </linearGradient>
    <linearGradient id="etherlink-dark_svg__d" x1="9.429" x2="21.965" y1="14.351" y2="14.351" gradientUnits="userSpaceOnUse">
      <stop stop-color="#38FF9C"/>
      <stop offset="1" stop-color="#171717"/>
    </linearGradient>
    <linearGradient id="etherlink-dark_svg__e" x1="5.457" x2="14.963" y1="16.149" y2="16.149" gradientUnits="userSpaceOnUse">
      <stop stop-color="#38FF9C"/>
      <stop offset="1" stop-color="#171717"/>
    </linearGradient>
    <linearGradient id="etherlink-dark_svg__f" x1="12.931" x2="21.701" y1="8.692" y2="8.692" gradientUnits="userSpaceOnUse">
      <stop stop-color="#38FF9C"/>
      <stop offset="1" stop-color="#171717"/>
    </linearGradient>
    <clipPath id="etherlink-dark_svg__a">
      <path fill="#fff" d="M0 0h103v25H0z"/>
    </clipPath>
  </defs>
</svg>
